X:1
T:Title
%%score 1 ( 2 3 )
L:1/8
Q:1/4=85
M:2/4
K:D
V:1 treble nm="Grand Piano, Soprano"
V:2 bass nm="Choir Pad, I Expect to Get to Heaven"
V:3 bass 
V:1
 D[DF] [FA][FA]- | [FA]/[GB]/[FA] .[DF]2 | [FA][GB] [Bd][Ac]- | [Ac]/B/ [FA]3 | D[DF] [FA][FA]- | %5
w: By~George~Crawford~Hugg * * *|||||
 [FA]/[GB]/[FA] .[DF]2 | D[A,F] [A,F][A,E]- | [A,E]/[^G,D]/ [A,E]3 | [A,D][DF] [FA][FA]- | %9
w: ||||
 [FA]/[GB]/[FA] .[DF]2 | [FA][GB] [Bd][Ac]- | [Ac]/[GB]/ [FA]3 | A/A/[Fd]- [Fd]/[Fd]/[Gd]- | %13
w: ||||
 [Gd]/[Gd]/[Fd] [FA]D | [DE] [DF]2 [CE]- | [CE] D2 D | [DE][DF] [DF][DA]- | [DA] D2 D | %18
w: |||||
 [DE][DF] [DF][CE]- | [CE]/[CE]/ D2 [FA] | [FA][GB] [Bd][Ac]- | [Ac]/[GB]/ [FA]2 [DF] | %22
w: ||||
 [DF][FA] [DF][Fd]- | [Fd]/[DF]/ [CE]3 | D[DF] [FA][FA]- | [FA]/[GB]/[FA] .[DF]2 | %26
w: ||||
 [FA][GB] [Bd][Ac]- | [Ac]/[GB]/ [FA]3 | A/A/[Fd]- [Fd]/[Fd]/[Gd]- | [Gd]/[Gd]/[Fd] [FA]D | %30
w: ||||
 [DE] [DF]2 [CE]- | [CE] D3- | D4 |] %33
w: |||
V:2
 [D,F,][D,A,] [D,D][D,D]- | [D,D]/[D,D]/[D,D] .[D,A,]2 | [D,D][G,D] [G,D][G,D]- | %3
 [G,D]/[G,D]/ [D,D]3 | [D,F,][D,A,] [D,D][D,D]- | [D,D]/[D,D]/[D,D] .[D,A,]2 | [D,F,]D, D,[C,E,]- | %7
 [C,E,]/[B,,E,]/ [A,,C,]3 | [D,F,][D,A,] [D,D][D,D]- | [D,D]/[D,D]/[D,D] .[D,A,]2 | %10
 [D,D][G,D] [G,D][G,D]- | [G,D]/[G,D]/ [D,D]3 | A,/A,/[D,A,]- [D,A,]/[D,A,]/[D,B,]- | %13
 [D,B,]/[D,B,]/[D,A,] [D,A,][F,A,] | [^G,B,] A,2 A, | G, [D,F,]2 [D,F,] | %16
 [D,G,][D,A,] [D,A,][D,F,]- | [D,F,] [D,F,]2 [D,F,] | [D,G,][D,A,] [D,A,][A,,A,]- | %19
 [A,,A,]/[A,,G,]/ [D,F,]2 [D,D] | [D,D][G,D] [G,D][G,D]- | [G,D]/[G,D]/ [D,D]2 [D,A,] | %22
 [D,A,][D,A,] [D,A,][D,A,]- | [D,A,]/[D,A,]/ [A,,A,]3 | [D,F,][D,A,] [D,D][D,D]- | %25
 [D,D]/[D,D]/[D,D] .[D,A,]2 | [D,D][G,D] [G,D][G,D]- | [G,D]/[G,D]/ [D,D]3 | %28
 A,/A,/[D,A,]- [D,A,]/[D,A,]/[D,B,]- | [D,B,]/[D,B,]/[D,A,] [D,A,][F,A,] | [^G,B,] A,2 A, | %31
 G, [D,F,]3- | [D,F,]4 |] %33
V:3
 x4 | x4 | x4 | x4 | x4 | x4 | x4 | x4 | x4 | x4 | x4 | x4 | x4 | x4 | z2 z A,,- | A,, z z2 | x4 | %17
 x4 | x4 | x4 | x4 | x4 | x4 | x4 | x4 | x4 | x4 | x4 | x4 | x4 | z2 z A,,- | A,, z z2 | x4 |] %33

